X: 55
T: German Klapp Dance
N: (For Directions, see page 8.)
%R: air, polka, march
B: "The Everyday Song Book", 1927
F: http://www.library.pitt.edu/happybirthday/pdf/The_Everyday_Song_Book.pdf
Z: 2017 John Chambers <jc:trillian.mit.edu>
M: 2/4
L: 1/8
K: E
% - - - - - - - - - - - - - - -
B | ^A B c B | D D D B | ^A B c B | E E E ||
w: Now with your hands go clap, clap, clap, Now with your feet go tap, tap, tap,
%
B | e e e G | c c c F | B B A F | E E E2 :|
w: Then have a care, my part-ner there, Or in our fun you'll have no share.
% - - - - - - - - - - - - - - -
